flags/gb-wls.svg

<svg xmlns="http://www.w3.org/2000/svg" width="512" height="512" fill="none"><g clip-path="url(#a)"><path fill="var(--flag-palette-green, #6da544)" d="M0 204.9h512V512H0z"/><path fill="#EEE" d="M0 0h512v256H0z"/><path fill="var(--flag-palette-bright-red, #d80027)" d="M166 149c-12 0-21 9-21 21h-14c-19 0-35 15-35 34h25c3 8 10 14 17 14h7v48l2 14-16 5c-1-15-13-26-27-26-4 0-8 3-8 6v56c0 4 4 7 8 7l12-3 56-15c6 3 14 5 22 5h6v14h-13c-16 0-28 12-28 27 0 4 3 7 7 7h62c4 0 7-3 7-7v-41l9-1h49l9 15h-5c-15 0-27 12-27 27 0 4 3 7 7 7h69c4 0 7-3 7-7 0-6-2-11-5-16l-15-26h23c29 0 52-23 52-52v-3l8 2h6c3-3 4-7 2-10l-28-40-1-1c-3-2-8-2-10 1l-27 40c-1 2-2 4-1 6 1 4 5 6 9 5l8-3v3c0 10-8 18-18 18h-37c12-12 22-26 28-41l25-57 1-5c0-8-6-14-14-14h-95c-15 0-28 12-28 27v17a11 11 0 0 1-22 0v-31c12-4 21-14 21-27z"/></g><defs><clipPath id="a"><path fill="#fff" d="M0 0h512v512H0z"/></clipPath></defs></svg>

<svg width="512" height="512" viewBox="0 0 512 512" fill="none" xmlns="http://www.w3.org/2000/svg">
<rect y="204.863" width="512" height="307.137" fill="var(--flag-palette-green, #6da544)"/>
<rect width="512" height="256" fill="var(--flag-palette-white, #eeeeee)"/>
<path d="M166 149C154 149 145 158 145 170H131C112 170 96 185 96 204H121C124 212 131 218 138 218H145V266L147 280L131 285C130 270 118 259 104 259C100 259 96 262 96 265V321C96 325 100 328 104 328L116 325L172 310C178 313 186 315 194 315H200V329H187C171 329 159 341 159 356C159 360 162 363 166 363H228C232 363 235 360 235 356V315L244 314H293L302 329H297C282 329 270 341 270 356C270 360 273 363 277 363H346C350 363 353 360 353 356C353 350 351 345 348 340L333 314H356C385 314 408 291 408 262V259L416 261H422C425 258 426 254 424 251L396 211L395 210C392 208 387 208 385 211L358 251C357 253 356 255 357 257C358 261 362 263 366 262L374 259V262C374 272 366 280 356 280H319C331 268 341 254 347 239L372 182L373 177C373 169 367 163 359 163H264C249 163 236 175 236 190V207C236 209.917 234.841 212.715 232.778 214.778C230.715 216.841 227.917 218 225 218C222.083 218 219.285 216.841 217.222 214.778C215.159 212.715 214 209.917 214 207V176C226 172 235 162 235 149H194H166Z" fill="var(--flag-palette-bright-red, #d80027)"/>
</svg>
